!!!OTL: 429c. Der Allerliebste.
!!!ODT: 1890
!!!ARE: Europa, Mitteleuropa, Deutschland, Hessen, Dillkreis; Lahnkreis
!!!SCT: E0429B
!!!TXL: @@DE
!!!YEM: Copyright 1995, estate of Helmut Schaffrath.
**kern	**text
*ICvox	*
*M6/8	*
*k[f#]	*
*G:	*
!LO:TX:a:t=Heiter.	!
!LO:TX:a:t=Aus dem Dill- und Lahnkreis, 1890.	!
{8g	Wenn
=1	=1
8gL	al-
8bJ	.
8b	-le
8bL	Bächlein
8ddJ	.
8dd	.
=2	=2
4.b/	flie-
4a}	-ßen,
{8ee	ſo
=3	=3
8ddL	ſoll
8ccJ	.
8b	man
4.a	trin-
=4	=4
4.g	-ken.
4r}	.
{16gL	Wenn
16bJ	.
=5	=5
4dd	ich
8dd	mein'
4dd	Schatʒ
8ee	nicht
=6	=6
8ddL	ru-
8ccJ	.
8cc	-fen
4.ee}	darf,
=7	=7
{4.b	ju
4.dd	ja
=8	=8
8ddL	ru-
8aJ	.
8a	-fen
4a}	darf,
{8ee	thu
=9	=9
8ddL	ich
8ccJ	.
8b/	ihm
4.a	win-
=10	=10
4.g	-ken.
4r}	.
==	==
!!!AGN: Liebes - Lied
!!!ONB: ESAC (Essen Associative Code) Database: ERK1
!!!AMT: compound duple
!!!AIN: vox
!!!EED: Helmut Schaffrath
!!!EEV: 1.0
!!!GTL: Liebeslieder [Alte (aus dem 13. bis 17. Jahrh.) mit ihrem jungen Nachwuchs]
!!!URL-scan: https://rosdok.uni-rostock.de/mcrviewer/recordIdentifier/rosdok_ppn745177662/iview2/phys_0253.iview2?x=-778.7160746633431&y=2272.0889031887054&scale=0.3980252647138593&rotation=0&layout=singlePageLayout
!!!ENC: Anna Maria Matuszewska
!!!EEV: 2024/09/12
*-	*-
